icons/progress-report-draft.svg

<svg
  xmlns="http://www.w3.org/2000/svg"
  viewBox="0 0 500 500"
  width="500"
  height="500"
  fill="#ffffff"
>
  <rect class="cls-1" x="216.27" y="152.44" width="20.01" height="144.09" />
  <rect class="cls-1" x="160.7" y="224.48" width="20.01" height="72.04" />
  <rect class="cls-1" x="105.12" y="261.19" width="20.01" height="35.33" />
  <polygon
    class="cls-1"
    points="204.79 132.09 220.28 74.26 162.45 89.75 176.54 103.85 96.4 183.99 110.55 198.14 190.69 118 204.79 132.09"
  />
  <path
    class="cls-1"
    d="M44.45 304.46V81.6A56.66 56.66 0 0 1 101 25h194.41A56.66 56.66 0 0 1 352 81.6v173.24a130.44 130.44 0 0 1 13.33-.68q3.36 0 6.68.17V81.6A76.68 76.68 0 0 0 295.41 5H101a76.68 76.68 0 0 0-76.6 76.6v222.86a76.68 76.68 0 0 0 76.6 76.6h133.82a131.59 131.59 0 0 1 2.09-20H101a56.66 56.66 0 0 1-56.55-56.6z"
  />
  <path
    class="cls-1"
    d="M366.29 274.54A110.23 110.23 0 0 0 255.1 385.73c.51 59.85 49.42 108.76 109.27 109.27a110.24 110.24 0 0 0 111.19-111.19c-.51-59.81-49.42-108.76-109.27-109.27zm-25.2 154.2l-3.55 3.55-.75.75-3.53 3.53-25.32 3.95 3.95-25.33 3.53-3.52.75-.75 3.55-3.55 52.6-51.13 21.37 21.37zm67-65.11l-21.39-21.36L400.34 329c17.37 4.26 22.38 20.37 22.38 20.37z"
  />
  <path
    class="cls-1"
    d="M291.86 276.61V97.09h-20v196.28a131.61 131.61 0 0 1 20-16.76z"
  />
</svg>

<svg xmlns="http://www.w3.org/2000/svg" viewBox="0 0 500 500">
  <defs>
    <style>
      .cls-1 {
        fill: #231f20;
      }
    </style>
  </defs>
  <g id="progress-report-draft">
    <rect id="bar-2" class="cls-1" x="216.27" y="152.44" width="20.01" height="144.09"/>
    <rect id="bar-3" class="cls-1" x="160.7" y="224.48" width="20.01" height="72.04"/>
    <rect id="bar-4" class="cls-1" x="105.12" y="261.19" width="20.01" height="35.33"/>
    <polygon id="arrow" class="cls-1" points="204.79 132.09 220.28 74.26 162.45 89.75 176.54 103.85 96.4 183.99 110.55 198.14 190.69 118 204.79 132.09"/>
    <path id="outline" class="cls-1" d="M44.45,304.46V81.6A56.66,56.66,0,0,1,101,25H295.41A56.66,56.66,0,0,1,352,81.6V254.84a130.44,130.44,0,0,1,13.33-.68q3.36,0,6.68.17V81.6A76.68,76.68,0,0,0,295.41,5H101a76.68,76.68,0,0,0-76.6,76.6V304.46a76.68,76.68,0,0,0,76.6,76.6H234.82a131.59,131.59,0,0,1,2.09-20H101A56.66,56.66,0,0,1,44.45,304.46Z"/>
    <path id="draft" class="cls-1" d="M366.29,274.54A110.23,110.23,0,0,0,255.1,385.73c.51,59.85,49.42,108.76,109.27,109.27A110.24,110.24,0,0,0,475.56,383.81C475.05,324,426.14,275.05,366.29,274.54Zm-25.2,154.2-3.55,3.55-.75.75-3.53,3.53-25.32,3.95,3.95-25.33,3.53-3.52.75-.75,3.55-3.55,52.6-51.13,21.37,21.37Zm67-65.11L386.7,342.27,400.34,329c17.37,4.26,22.38,20.37,22.38,20.37Z"/>
    <path id="bar-1" class="cls-1" d="M291.86,276.61V97.09h-20V293.37A131.61,131.61,0,0,1,291.86,276.61Z"/>
  </g>
</svg>
